X:113
T:Dance of the Skeleton
C:David McLaughlin
N:TableEdit by Larry Tanner
R:bluegrass
L:1/8
Q:1/4=280
M:4/4
K:C
"Intro"z2 G,2 C2 D2 | ^D2 F2 G2 c2 | B2 G2 ^G2 F2 | G2 ^D2 F2 =D2 | {_B,}=B,2 G2 G,4 | 
z2 G,2 C4 |: D2 ^D4 F2 | (3"Cm"GGG (3GGG (3GGG G2 | z2 c2 (3"G#"^FFF (3FFF | (3^FFF F4 c2 | 
(3"G"FFF (3FFF (3FFF F2 | ^D2 =D2 "Cm"C4 | D2 ^D4 F2 | {^F}G2 z4 c2 | z4 (3"G#"^FFF (3FFF | 
(3^FFF (3FFF (3FFF (3FFF | "G"^F2 G2 F2 =F2 | ^D2 =D2 "Cm"C4 | D2 ^D4 F2 | (3GGG (3GGG (3GGG G2 | 
z2 c2 (3"G#"^FFF (3FFF | (3^FFF F4 c2 | (3"G"FFF (3FFF (3FFF F2 | ^D2 =D2 "Cm"C4 | 
D2 ^D4 F2 | ^D/F/D =D2 C2 B,2 | G,2 B,2 "G#"C2 B,2 | C2 ^D2 C2 D2 |1 G2 ^F2 G2 D2 | 
G,2 B,2 "Cm"C4 :|2 G2 ^F2 G2 c2 | G2 c2 B2 G2 |: B2 d2 B2 d2 | f2 d2 f2 d2 | B2 G2 "Cm"c2 G2 | 
c2 ^d2 c2 d2 | g2 ^d2 g2 d2 | c2 G2 "G"B2 G2 | B2 d2 B2 d2 | f2 d2 f2 d2 | B2 G2 "Cm"c4 | 
d2 ^d4 f2 | (3ggg (3ggg (3ggg g2 |1 z2 c2 "G"B2 G2 :|2 z8 | 


